apps/nuxt3-ssr/assets/minified-icons/Mouse.svg

<svg viewBox="0 0 24 24" fill="none" xmlns="http://www.w3.org/2000/svg"><path d="M11.0541 8.60377C11.0541 8.08275 11.4776 7.66038 12 7.66038C12.5224 7.66038 12.9459 8.08275 12.9459 8.60377V10.8679C12.9459 11.3889 12.5224 11.8113 12 11.8113C11.4776 11.8113 11.0541 11.3889 11.0541 10.8679V8.60377Z" fill="currentColor"/><path fill-rule="evenodd" clip-rule="evenodd" d="M5 8.98113C5 5.12556 8.13401 2 12 2C15.866 2 19 5.12556 19 8.98113V15.0189C19 18.8744 15.866 22 12 22C8.13401 22 5 18.8744 5 15.0189V8.98113ZM17.4865 8.98113V15.0189C17.4865 18.0408 15.0301 20.4906 12 20.4906C8.9699 20.4906 6.51351 18.0408 6.51351 15.0189V10.3019H10.2973V8.60377C10.2973 7.66593 11.0596 6.90566 12 6.90566C12.0639 6.90566 12.1271 6.90918 12.1892 6.91602V3.51263C15.1317 3.61207 17.4865 6.02235 17.4865 8.98113Z" fill="currentColor"/></svg>

<svg fill="none" xmlns="http://www.w3.org/2000/svg" viewBox="0 0 24 24"><path d="M11.054 8.604c0-.521.424-.944.946-.944s.946.423.946.944v2.264a.945.945 0 0 1-.946.943.945.945 0 0 1-.946-.943V8.604Z" fill="currentColor"/><path fill-rule="evenodd" clip-rule="evenodd" d="M5 8.981C5 5.126 8.134 2 12 2s7 3.126 7 6.981v6.038C19 18.874 15.866 22 12 22s-7-3.126-7-6.981V8.98Zm12.486 0v6.038c0 3.022-2.456 5.472-5.486 5.472s-5.486-2.45-5.486-5.472v-4.717h3.783V8.604a1.7 1.7 0 0 1 1.892-1.688V3.513c2.943.1 5.297 2.51 5.297 5.468Z" fill="currentColor"/></svg>
